svg/free/speech.svg

<svg version="1.1" xmlns="http://www.w3.org/2000/svg" width="24" height="24" viewBox="0 0 24 24">
<title>speech</title>
<path d="M6.75 11.25h1.5v1.5h-1.5v-1.5z"></path>
<path d="M11.25 11.25h1.5v1.5h-1.5v-1.5z"></path>
<path d="M15.75 11.25h1.5v1.5h-1.5v-1.5z"></path>
<path d="M21.75 1.5h-19.5c-0.828 0.001-1.499 0.672-1.5 1.5v13.5c0.001 0.828 0.672 1.499 1.5 1.5h3v5.25h1.436l5.25-5.25h9.814c0.828-0.001 1.499-0.672 1.5-1.5v-13.5c-0.001-0.828-0.672-1.499-1.5-1.5h-0zM21.75 16.5h-10.436l-4.564 4.564v-4.564h-4.5v-13.5h19.5z"></path>
</svg>

<svg xmlns="http://www.w3.org/2000/svg" width="24" height="24" viewBox="0 0 24 24"><path d="M6.75 11.25h1.5v1.5h-1.5v-1.5zM11.25 11.25h1.5v1.5h-1.5v-1.5zM15.75 11.25h1.5v1.5h-1.5v-1.5z"/><path d="M21.75 1.5H2.25A1.502 1.502 0 00.75 3v13.5a1.502 1.502 0 001.5 1.5h3v5.25h1.436l5.25-5.25h9.814a1.502 1.502 0 001.5-1.5V3a1.502 1.502 0 00-1.5-1.5zm0 15H11.314L6.75 21.064V16.5h-4.5V3h19.5z"/></svg>
